svg/templates.svg

<svg xmlns="http://www.w3.org/2000/svg" viewBox="0 0 24 24"><path d="M19,2H5A2.005,2.005,0,0,0,3,4V20a2.005,2.005,0,0,0,2,2H19a2.005,2.005,0,0,0,2-2V4A2.005,2.005,0,0,0,19,2Zm0,11.15167V18.848L14,16ZM12,14.846,7,12H17ZM5,4H19V6H5ZM5,8h8v2H5Zm5,8L5,18.84833V13.14386Zm2,1.14978L17,20H7Z"/></svg>

<?xml version="1.0" encoding="utf-8"?>
<!-- Generator: Adobe Illustrator 24.1.0, SVG Export Plug-In . SVG Version: 6.00 Build 0)  -->
<svg version="1.1" id="Layer_1" xmlns="http://www.w3.org/2000/svg" xmlns:xlink="http://www.w3.org/1999/xlink" x="0px" y="0px"
	 viewBox="0 0 24 24" style="enable-background:new 0 0 24 24;" xml:space="preserve">
<path d="M19,2H5C3.9,2,3,2.9,3,4v16c0,1.1,0.9,2,2,2h14c1.1,0,2-0.9,2-2V4C21,2.9,20.1,2,19,2z M19,13.2v5.7L14,16L19,13.2z
	 M12,14.8L7,12h10L12,14.8z M5,4h14v2H5V4z M5,8h8v2H5V8z M10,16l-5,2.8v-5.7L10,16z M12,17.1l5,2.9H7L12,17.1z"/>
</svg>
